icons/filled/bottle.svg

<svg xmlns="http://www.w3.org/2000/svg" width="24" height="24" viewBox="0 0 24 24" fill="currentColor"><path d="M13 1a2 2 0 0 1 1.995 1.85l.005 .15v.5c0 1.317 .381 2.604 1.094 3.705l.17 .25l.05 .072a9.093 9.093 0 0 1 1.68 4.92l.006 .354v6.199a3 3 0 0 1 -2.824 2.995l-.176 .005h-6a3 3 0 0 1 -2.995 -2.824l-.005 -.176v-6.2a9.1 9.1 0 0 1 1.486 -4.982l.2 -.292l.05 -.069a6.823 6.823 0 0 0 1.264 -3.957v-.5a2 2 0 0 1 1.85 -1.995l.15 -.005h2zm.362 5h-2.724a8.827 8.827 0 0 1 -1.08 2.334l-.194 .284l-.05 .069a7.091 7.091 0 0 0 -1.307 3.798l-.003 .125a3.33 3.33 0 0 1 1.975 -.61a3.4 3.4 0 0 1 2.833 1.417c.27 .375 .706 .593 1.209 .583a1.4 1.4 0 0 0 1.166 -.583a3.4 3.4 0 0 1 .81 -.8l.003 .183c0 -1.37 -.396 -2.707 -1.137 -3.852l-.228 -.332a8.827 8.827 0 0 1 -1.273 -2.616z"/></svg>

<svg xmlns="http://www.w3.org/2000/svg" width="24" height="24" fill="currentColor"><path d="M13 1a2 2 0 0 1 1.995 1.85L15 3v.5c0 1.317.381 2.604 1.094 3.705l.17.25.05.072a9.1 9.1 0 0 1 1.68 4.92l.006.354V19a3 3 0 0 1-2.824 2.995L15 22H9a3 3 0 0 1-2.995-2.824L6 19v-6.2a9.1 9.1 0 0 1 1.486-4.982l.2-.292.05-.069A6.82 6.82 0 0 0 9 3.5V3a2 2 0 0 1 1.85-1.995L11 1zm.362 5h-2.724a8.8 8.8 0 0 1-1.08 2.334l-.194.284-.05.069a7.1 7.1 0 0 0-1.307 3.798l-.003.125A3.33 3.33 0 0 1 9.979 12a3.4 3.4 0 0 1 2.833 1.417c.27.375.706.593 1.209.583a1.4 1.4 0 0 0 1.166-.583 3.4 3.4 0 0 1 .81-.8L16 12.8c0-1.37-.396-2.707-1.137-3.852l-.228-.332A8.8 8.8 0 0 1 13.362 6"/></svg>
